icons/Home.svg

<svg width="24" height="24" viewBox="0 0 24 24" fill="none" xmlns="http://www.w3.org/2000/svg">
<path fill-rule="evenodd" clip-rule="evenodd" d="M22.446 11.362L13.666 2.582L12.286 1.191C12.1611 1.06866 11.9933 1.00014 11.8185 1.00014C11.6437 1.00014 11.4759 1.06866 11.351 1.191L9.971 2.581L1.191 11.361C1.06935 11.484 1.00112 11.65 1.00112 11.823C1.00112 11.996 1.06935 12.162 1.191 12.285L2.571 13.665C2.69399 13.7866 2.86001 13.8549 3.033 13.8549C3.20599 13.8549 3.372 13.7866 3.495 13.665L4.608 12.552V20.342C4.60624 20.4287 4.62196 20.5148 4.6542 20.5953C4.68645 20.6758 4.73457 20.749 4.79569 20.8105C4.85681 20.872 4.92968 20.9205 5.00997 20.9533C5.09025 20.986 5.1763 21.0022 5.263 21.001H9.203C9.28969 21.0025 9.37579 20.9865 9.45617 20.954C9.53656 20.9215 9.60958 20.8732 9.67088 20.8119C9.73219 20.7506 9.78053 20.6776 9.81302 20.5972C9.84551 20.5168 9.86149 20.4307 9.86 20.344V14.444H13.777V20.344C13.7755 20.4307 13.7915 20.5168 13.824 20.5972C13.8565 20.6776 13.9048 20.7506 13.9661 20.8119C14.0274 20.8732 14.1004 20.9215 14.1808 20.954C14.2612 20.9865 14.3473 21.0025 14.434 21.001H18.351C18.4377 21.0025 18.5238 20.9865 18.6042 20.954C18.6846 20.9215 18.7576 20.8732 18.8189 20.8119C18.8802 20.7506 18.9285 20.6776 18.961 20.5972C18.9935 20.5168 19.0095 20.4307 19.008 20.344V12.554L20.121 13.666C20.244 13.7876 20.41 13.8559 20.583 13.8559C20.756 13.8559 20.922 13.7876 21.045 13.666L22.425 12.286C22.5496 12.1659 22.6218 12.0015 22.6259 11.8285C22.6301 11.6555 22.5658 11.4879 22.447 11.362H22.446Z" fill="black"/>
</svg>

<svg xmlns="http://www.w3.org/2000/svg" viewBox="0 0 24 24">
  <path d="M22.446 11.362l-8.78-8.78-1.38-1.391a.668.668 0 00-.935 0l-1.38 1.39-8.78 8.78a.657.657 0 000 .924l1.38 1.38a.657.657 0 00.924 0l1.113-1.113v7.79a.646.646 0 00.655.659h3.94a.646.646 0 00.657-.657v-5.9h3.917v5.9a.646.646 0 00.657.657h3.917a.646.646 0 00.657-.657v-7.79l1.113 1.112a.657.657 0 00.924 0l1.38-1.38a.657.657 0 00.022-.924h-.001z"/>
</svg>
